icons/github.svg

<svg width="16" height="15" xmlns="http://www.w3.org/2000/svg" version="1.1"><path fill="#000000" d="M3,1h1v1h1v1h6v-1h1v-1h1v3h1v1h1v7h-1v1h-1v1h-10v-1h-1v-1h-1v-7h1v-1h1v-3M4,6v1h-1v5h1v1h2v-1h4v1h2v-1h1v-5h-1v-1h-3v1h-2v-1h-3M4,8h1v3h-1v-3M11,8h1v3h-1v-3M7,10h2v1h-2z"/></svg>

<svg width="16" height="15" xmlns="http://www.w3.org/2000/svg"><path d="M3 1h1v1h1v1h6V2h1V1h1v3h1v1h1v7h-1v1h-1v1H3v-1H2v-1H1V5h1V4h1V1m1 5v1H3v5h1v1h2v-1h4v1h2v-1h1V7h-1V6H9v1H7V6H4m0 2h1v3H4V8m7 0h1v3h-1V8m-4 2h2v1H7z"/></svg>
